16x16/apps/openoffice4-math.svg

<svg height="16" width="16" xmlns="http://www.w3.org/2000/svg"><circle cx="8" cy="8" fill="#8e8e8e" r="8"/><g fill="#f4f4f7"><path d="m7.968 5.203-1.245 4.175-.925-2.175h-1.798v.8h1.274l1.246 2.997h.552l1.481-4.99h2.447v-.807z"/><path d="m8.58 7 1.448 1.907-1.583 2.093h.79l1.186-1.571 1.186 1.571h.79l-1.55-2.054 1.473-1.946h-.79l-1.08 1.424-1.08-1.424z"/></g></svg>

<svg xmlns="http://www.w3.org/2000/svg" width="16" height="16" version="1"><circle style="fill:#8e8e8e" cx="8" cy="8" r="8"/><path style="fill:#f4f4f7" d="M7.968 5.203 6.723 9.378l-.925-2.175H4v.8h1.274L6.52 11h.552l1.481-4.99H11v-.807z"/><path style="fill:#f4f4f7" d="m8.58 7 1.448 1.907L8.445 11h.79l1.186-1.571L11.607 11h.79l-1.55-2.054L12.32 7h-.79l-1.08 1.424L9.37 7z"/></svg>
